svg/business/chart_bar_2_line.svg

<?xml version="1.0" encoding="UTF-8"?>
<svg width="24px" height="24px" viewBox="0 0 24 24" version="1.1" xmlns="http://www.w3.org/2000/svg" xmlns:xlink="http://www.w3.org/1999/xlink">
    <title>chart_bar_2_line</title>
    <g id="Icon" stroke="none" stroke-width="1" fill="none" fill-rule="evenodd">
        <g id="Business" transform="translate(-288.000000, -480.000000)">
            <g id="chart_bar_2_line" transform="translate(288.000000, 480.000000)">
                <path d="M24,0 L24,24 L0,24 L0,0 L24,0 Z M12.5935,23.2578 L12.5819,23.2595 L12.5109,23.295 L12.4919,23.2987 L12.4767,23.295 L12.4057,23.2595 C12.3958,23.2564 12.387,23.259 12.3821,23.2649 L12.378,23.2758 L12.3609,23.7031 L12.3659,23.7235 L12.3769,23.7357 L12.4805,23.8097 L12.4953,23.8136 L12.5071,23.8097 L12.6107,23.7357 L12.6233,23.7197 L12.6267,23.7031 L12.6096,23.2758 C12.6076,23.2657 12.601,23.2593 12.5935,23.2578 Z M12.8584,23.1453 L12.8445,23.1473 L12.6598,23.2397 L12.6499,23.2499 L12.6472,23.2611 L12.6651,23.6906 L12.6699,23.7034 L12.6784,23.7105 L12.8793,23.8032 C12.8914,23.8069 12.9022,23.803 12.9078,23.7952 L12.9118,23.7812 L12.8777,23.1665 C12.8753,23.1546 12.8674,23.147 12.8584,23.1453 Z M12.143,23.1473 C12.1332,23.1424 12.1222,23.1453 12.1156,23.1526 L12.1099,23.1665 L12.0758,23.7812 C12.0751,23.7927 12.0828,23.8019 12.0926,23.8046 L12.1083,23.8032 L12.3092,23.7105 L12.3186,23.7024 L12.3225,23.6906 L12.3404,23.2611 L12.3372,23.2485 L12.3278,23.2397 L12.143,23.1473 Z" id="MingCute" fill-rule="nonzero"></path>
                <path d="M20,3 C21.0543909,3 21.9181678,3.81587733 21.9945144,4.85073759 L22,5 L22,19 C22,20.0543909 21.18415,20.9181678 20.1492661,20.9945144 L20,21 L4,21 C2.94563773,21 2.08183483,20.18415 2.00548573,19.1492661 L2,19 L2,14 C2,12.9456091 2.81587733,12.0818322 3.85073759,12.0054856 L4,12 L8,12 L8,10 C8,8.94563773 8.81587733,8.08183483 9.85073759,8.00548573 L10,8 L14,8 L14,5 C14,3.94563773 14.81585,3.08183483 15.8507339,3.00548573 L16,3 L20,3 Z M20,5 L16,5 L16,19 L20,19 L20,5 Z M14,10 L10,10 L10,19 L14,19 L14,10 Z M8,14 L4,14 L4,19 L8,19 L8,14 Z" id="形状" fill="#09244B"></path>
            </g>
        </g>
    </g>
</svg>

<svg xmlns="http://www.w3.org/2000/svg" width="24" height="24"><g fill="none" fill-rule="evenodd"><path d="M24 0v24H0V0zM12.594 23.258l-.012.002-.071.035-.02.004-.014-.004-.071-.036c-.01-.003-.019 0-.024.006l-.004.01-.017.428.005.02.01.013.104.074.015.004.012-.004.104-.074.012-.016.004-.017-.017-.427c-.002-.01-.009-.017-.016-.018m.264-.113-.014.002-.184.093-.01.01-.003.011.018.43.005.012.008.008.201.092c.012.004.023 0 .029-.008l.004-.014-.034-.614c-.003-.012-.01-.02-.02-.022m-.715.002a.023.023 0 0 0-.027.006l-.006.014-.034.614c0 .012.007.02.017.024l.015-.002.201-.093.01-.008.003-.011.018-.43-.003-.012-.01-.01z"/><path fill="#09244B" d="M20 3a2 2 0 0 1 1.995 1.85L22 5v14a2 2 0 0 1-1.85 1.995L20 21H4a2 2 0 0 1-1.995-1.85L2 19v-5a2 2 0 0 1 1.85-1.995L4 12h4v-2a2 2 0 0 1 1.85-1.995L10 8h4V5a2 2 0 0 1 1.85-1.995L16 3zm0 2h-4v14h4zm-6 5h-4v9h4zm-6 4H4v5h4z"/></g></svg>
